X:1
T:Title
%%score { 1 | 2 }
L:1/8
M:4/4
K:A
V:1 treble nm="Grand Piano"
V:2 bass 
V:1
 z4 z2[Q:1/4=100] [CE][CE] | [CA][CE][EA]B c[CA][CA][EG] | [DF][FA][EG][DF] [CE]2 [A,C][B,D] | %3
 [CE][CE][DF][DG] [CA][CA][CA][CG] |[M:9/8] [^DF][DF][DG] [DA] B2- BcB |[M:4/4] AEA,B, CEAB | %6
 cAdA c2 [EA]F | E2 A2 A2 G2 |[M:3/4] [CA]6 |] %9
V:2
 z4 z2 [A,,A,][A,,A,] | [A,,E,][A,,A,][C,A,][E,G,E] [A,E][A,,E,][A,,E,][C,A,] | %2
 [D,A,][D,F,][D,G,][D,A,] [A,,A,]2 [A,,E,][A,,E,] | %3
 [A,,A,][A,,A,][D,A,][B,,E,] [A,,E,][A,,E,][A,,E,][A,,A,] | %4
[M:9/8] [B,,A,][B,,A,][B,,G,] [B,,F,] [E,G,E]2- [E,G,E]ED | %5
[M:4/4] CCC,E, A,[K:treble]C[A,CE][A,DE] | [A,EA][A,C][A,FA][A,^E] [A,=EA]2[K:bass] [C,A,][D,A,D] | %7
 [E,A,C]2 [E,CE]2 [E,B,D]2 [E,B,D]2 |[M:3/4] [A,,A,]6 |] %9

